app/assets/images/chilli.svg

<svg width="93" height="97" viewBox="0 0 93 97" fill="none" xmlns="http://www.w3.org/2000/svg">
<g filter="url(#filter0_f)">
<path d="M10.6901 74.4114L13.9066 76.6769L16.172 73.4605L12.9556 71.195L10.6901 74.4114Z" fill="#29D381"/>
<path d="M12.9554 71.1953L16.1718 73.4607L18.4373 70.2443L15.2209 67.9788L12.9554 71.1953Z" fill="#28DD8B"/>
<path d="M12.0081 65.71L15.2245 67.9755L17.4899 64.759L14.2735 62.4936L12.0081 65.71Z" fill="#4BEF9D"/>
<path d="M15.2236 67.9748L18.44 70.2402L20.7055 67.0238L17.489 64.7584L15.2236 67.9748Z" fill="#29D381"/>
<path d="M14.2758 62.4904L17.4922 64.7559L19.7577 61.5394L16.5413 59.274L14.2758 62.4904Z" fill="#28DD8B"/>
<path d="M16.5401 59.2756L19.7565 61.541L22.022 58.3246L18.8055 56.0591L16.5401 59.2756Z" fill="#28DD8B"/>
<path d="M18.8093 56.0538L22.0257 58.3192L24.2912 55.1028L21.0747 52.8373L18.8093 56.0538Z" fill="#28DD8B"/>
<path d="M24.2892 55.1038L27.5056 57.3693L29.7711 54.1528L26.5546 51.8874L24.2892 55.1038Z" fill="#28DD8B"/>
<path d="M21.0736 52.8389L24.2901 55.1044L26.5555 51.8879L23.3391 49.6225L21.0736 52.8389Z" fill="#4BEF9D"/>
<path d="M26.555 51.8869L29.7714 54.1523L32.0369 50.9359L28.8204 48.6705L26.555 51.8869Z" fill="#28DD8B"/>
<path d="M51.1266 30.6747L54.343 32.9402L56.6085 29.7238L53.3921 27.4583L51.1266 30.6747Z" fill="#28DD8B"/>
<path d="M29.775 54.1548L32.9914 56.4203L35.2569 53.2039L32.0404 50.9384L29.775 54.1548Z" fill="#28DD8B"/>
<path d="M27.5092 57.3718L30.7256 59.6372L32.9911 56.4208L29.7746 54.1553L27.5092 57.3718Z" fill="#29D381"/>
<path d="M23.3394 49.622L26.5558 51.8875L28.8213 48.671L25.6049 46.4056L23.3394 49.622Z" fill="#28DD8B"/>
<path d="M20.1191 47.3538L23.3355 49.6193L25.601 46.4028L22.3845 44.1374L20.1191 47.3538Z" fill="#4BEF9D"/>
<path d="M17.8533 50.5707L21.0697 52.8362L23.3352 49.6198L20.1187 47.3543L17.8533 50.5707Z" fill="#28DD8B"/>
<path d="M15.5889 53.7856L18.8054 56.051L21.0708 52.8346L17.8544 50.5692L15.5889 53.7856Z" fill="#28DD8B"/>
<path d="M22.0248 58.3187L25.2413 60.5841L27.5067 57.3677L24.2903 55.1022L22.0248 58.3187Z" fill="#29D381"/>
<path d="M28.8232 48.6664L32.0396 50.9319L34.305 47.7155L31.0886 45.45L28.8232 48.6664Z" fill="#28DD8B"/>
<path d="M32.0432 50.9345L35.2596 53.2L37.5251 49.9835L34.3086 47.7181L32.0432 50.9345Z" fill="#28DD8B"/>
<path d="M25.6076 46.4017L28.824 48.6671L31.0895 45.4507L27.873 43.1852L25.6076 46.4017Z" fill="#4BEF9D"/>
<path d="M31.0885 45.4503L34.3049 47.7157L36.5704 44.4993L33.3539 42.2338L31.0885 45.4503Z" fill="#28DD8B"/>
<path d="M34.3085 47.7182L37.5249 49.9836L39.7904 46.7672L36.5739 44.5018L34.3085 47.7182Z" fill="#28DD8B"/>
<path d="M37.5261 49.9846L40.7425 52.25L43.008 49.0336L39.7915 46.7681L37.5261 49.9846Z" fill="#28DD8B"/>
<path d="M39.7943 46.7641L43.0107 49.0295L45.2762 45.8131L42.0597 43.5477L39.7943 46.7641Z" fill="#28DD8B"/>
<path d="M42.0596 43.5479L45.276 45.8134L47.5415 42.5969L44.325 40.3315L42.0596 43.5479Z" fill="#28DD8B"/>
<path d="M44.3288 40.3262L47.5452 42.5917L49.8106 39.3752L46.5942 37.1098L44.3288 40.3262Z" fill="#28DD8B"/>
<path d="M46.5931 37.1114L49.8095 39.3768L52.075 36.1604L48.8586 33.895L46.5931 37.1114Z" fill="#28DD8B"/>
<path d="M48.8589 33.8945L52.0753 36.1599L54.3408 32.9435L51.1243 30.678L48.8589 33.8945Z" fill="#28DD8B"/>
<path d="M27.8729 43.1855L31.0894 45.4509L33.3548 42.2345L30.1384 39.9691L27.8729 43.1855Z" fill="#28DD8B"/>
<path d="M33.3567 42.2299L36.5731 44.4954L38.8386 41.2789L35.6221 39.0135L33.3567 42.2299Z" fill="#28DD8B"/>
<path d="M36.5767 44.4979L39.7931 46.7633L42.0586 43.5469L38.8421 41.2814L36.5767 44.4979Z" fill="#28DD8B"/>
<path d="M30.1411 39.9652L33.3576 42.2306L35.623 39.0142L32.4066 36.7487L30.1411 39.9652Z" fill="#4BEF9D"/>
<path d="M26.9208 37.6968L30.1372 39.9623L32.4026 36.7459L29.1862 34.4804L26.9208 37.6968Z" fill="#28DD8B"/>
<path d="M35.622 39.0137L38.8384 41.2792L41.1038 38.0627L37.8874 35.7973L35.622 39.0137Z" fill="#28DD8B"/>
<path d="M38.842 41.2817L42.0584 43.5471L44.3239 40.3307L41.1075 38.0653L38.842 41.2817Z" fill="#28DD8B"/>
<path d="M32.4064 36.7488L35.6229 39.0143L37.8883 35.7979L34.6719 33.5324L32.4064 36.7488Z" fill="#4BEF9D"/>
<path d="M29.1861 34.4807L32.4025 36.7461L34.668 33.5297L31.4515 31.2642L29.1861 34.4807Z" fill="#4BEF9D"/>
<path d="M37.8911 35.7919L41.1076 38.0574L43.373 34.8409L40.1566 32.5755L37.8911 35.7919Z" fill="#28DD8B"/>
<path d="M41.1112 38.0599L44.3276 40.3253L46.593 37.1089L43.3766 34.8434L41.1112 38.0599Z" fill="#28DD8B"/>
<path d="M34.6756 33.5272L37.8921 35.7926L40.1575 32.5762L36.9411 30.3107L34.6756 33.5272Z" fill="#4BEF9D"/>
<path d="M36.9399 30.3123L40.1564 32.5778L42.4218 29.3613L39.2054 27.0959L36.9399 30.3123Z" fill="#28DD8B"/>
<path d="M33.7196 28.0441L36.936 30.3096L39.2015 27.0931L35.985 24.8277L33.7196 28.0441Z" fill="#4BEF9D"/>
<path d="M30.503 25.7785L33.7195 28.0439L35.9849 24.8275L32.7685 22.5621L30.503 25.7785Z" fill="#28DD8B"/>
<path d="M28.2387 28.9933L31.4551 31.2588L33.7205 28.0424L30.5041 25.7769L28.2387 28.9933Z" fill="#28DD8B"/>
<path d="M25.9695 32.2152L29.1859 34.4806L31.4514 31.2642L28.2349 28.9987L25.9695 32.2152Z" fill="#28DD8B"/>
<path d="M23.7042 35.4313L26.9207 37.6968L29.1861 34.4803L25.9697 32.2149L23.7042 35.4313Z" fill="#28DD8B"/>
<path d="M21.436 38.6517L24.6524 40.9171L26.9179 37.7007L23.7014 35.4352L21.436 38.6517Z" fill="#28DD8B"/>
<path d="M19.1707 41.8679L22.3871 44.1333L24.6526 40.9169L21.4361 38.6514L19.1707 41.8679Z" fill="#28DD8B"/>
<path d="M16.9025 45.0883L20.1189 47.3538L22.3844 44.1373L19.1679 41.8719L16.9025 45.0883Z" fill="#28DD8B"/>
<path d="M31.4553 31.259L34.6717 33.5244L36.9371 30.308L33.7207 28.0425L31.4553 31.259Z" fill="#28DD8B"/>
<path d="M40.1555 32.5771L43.3719 34.8425L45.6373 31.6261L42.4209 29.3607L40.1555 32.5771Z" fill="#28DD8B"/>
<path d="M43.3755 34.845L46.5919 37.1105L48.8574 33.894L45.6409 31.6286L43.3755 34.845Z" fill="#28DD8B"/>
<path d="M42.4213 29.3602L45.6377 31.6256L47.9031 28.4092L44.6867 26.1437L42.4213 29.3602Z" fill="#28DD8B"/>
<path d="M39.2058 27.0954L42.4222 29.3608L44.6876 26.1444L41.4712 23.879L39.2058 27.0954Z" fill="#4BEF9D"/>
<path d="M35.9854 24.8272L39.2018 27.0927L41.4673 23.8762L38.2509 21.6108L35.9854 24.8272Z" fill="#4BEF9D"/>
<path d="M38.2531 21.6075L41.4695 23.8729L43.735 20.6565L40.5186 18.3911L38.2531 21.6075Z" fill="#4BEF9D"/>
<path d="M40.5189 18.3906L43.7353 20.656L46.0008 17.4396L42.7843 15.1741L40.5189 18.3906Z" fill="#4BEF9D"/>
<path d="M44.689 26.1406L47.9054 28.406L50.1709 25.1896L46.9544 22.9241L44.689 26.1406Z" fill="#28DD8B"/>
<path d="M47.909 28.4085L51.1254 30.674L53.3909 27.4575L50.1744 25.1921L47.909 28.4085Z" fill="#28DD8B"/>
<path d="M41.4735 23.8757L44.6899 26.1411L46.9554 22.9247L43.7389 20.6592L41.4735 23.8757Z" fill="#28DD8B"/>
<path d="M46.9548 22.9236L50.1712 25.1891L52.4366 21.9727L49.2202 19.7072L46.9548 22.9236Z" fill="#28DD8B"/>
<path d="M50.1748 25.1916L53.3912 27.457L55.6566 24.2406L52.4402 21.9752L50.1748 25.1916Z" fill="#28DD8B"/>
<path d="M53.3924 27.4578L56.6088 29.7233L58.8743 26.5068L55.6578 24.2414L53.3924 27.4578Z" fill="#28DD8B"/>
<path d="M54.3422 32.9395L57.5586 35.205L59.824 31.9885L56.6076 29.7231L54.3422 32.9395Z" fill="#28DD8B"/>
<path d="M45.6413 31.6281L48.8577 33.8936L51.1232 30.6771L47.9067 28.4117L45.6413 31.6281Z" fill="#28DD8B"/>
<path d="M56.6079 29.7227L59.8243 31.9882L62.0898 28.7717L58.8734 26.5063L56.6079 29.7227Z" fill="#28DD8B"/>
<path d="M43.7392 20.6588L46.9557 22.9242L49.2211 19.7078L46.0047 17.4423L43.7392 20.6588Z" fill="#4BEF9D"/>
<path d="M49.2215 19.7054L52.438 21.9708L54.7034 18.7544L51.487 16.489L49.2215 19.7054Z" fill="#4BEF9D"/>
<path d="M52.4415 21.9733L55.658 24.2388L57.9234 21.0223L54.707 18.7569L52.4415 21.9733Z" fill="#28DD8B"/>
<path d="M55.6591 24.2396L58.8755 26.505L61.141 23.2886L57.9246 21.0231L55.6591 24.2396Z" fill="#28DD8B"/>
<path d="M51.4883 16.487L54.7047 18.7524L56.9701 15.536L53.7537 13.2706L51.4883 16.487Z" fill="#28DD8B"/>
<path d="M54.7083 18.7549L57.9247 21.0204L60.1902 17.804L56.9737 15.5385L54.7083 18.7549Z" fill="#4BEF9D"/>
<path d="M57.9259 21.0213L61.1423 23.2867L63.4077 20.0703L60.1913 17.8049L57.9259 21.0213Z" fill="#28DD8B"/>
<path d="M61.1415 23.2861L64.3579 25.5515L66.6233 22.3351L63.4069 20.0696L61.1415 23.2861Z" fill="#28DD8B"/>
<path d="M60.1917 17.8044L63.4081 20.0698L65.6735 16.8534L62.4571 14.588L60.1917 17.8044Z" fill="#4BEF9D"/>
<path d="M63.4073 20.0692L66.6237 22.3346L68.8891 19.1182L65.6727 16.8527L63.4073 20.0692Z" fill="#28DD8B"/>
<path d="M66.6275 22.3373L69.844 24.6028L72.1094 21.3864L68.893 19.1209L66.6275 22.3373Z" fill="#28DD8B"/>
<path d="M69.8441 24.603L73.0606 26.8684L75.326 23.652L72.1096 21.3865L69.8441 24.603Z" fill="#28DD8B"/>
<path d="M73.0631 26.8702L76.2795 29.1356L78.545 25.9192L75.3286 23.6538L73.0631 26.8702Z" fill="#28DD8B"/>
<path d="M70.7973 30.087L74.0138 32.3524L76.2792 29.136L73.0628 26.8705L70.7973 30.087Z" fill="#28DD8B"/>
<path d="M67.5783 27.8198L70.7948 30.0852L73.0602 26.8688L69.8438 24.6033L67.5783 27.8198Z" fill="#28DD8B"/>
<path d="M64.3618 25.5543L67.5782 27.8197L69.8437 24.6033L66.6272 22.3378L64.3618 25.5543Z" fill="#28DD8B"/>
<path d="M58.8747 26.5043L62.0911 28.7698L64.3565 25.5533L61.1401 23.2879L58.8747 26.5043Z" fill="#28DD8B"/>
<path d="M62.095 28.7725L65.3115 31.038L67.5769 27.8215L64.3605 25.5561L62.095 28.7725Z" fill="#28DD8B"/>
<path d="M65.674 16.8509L68.8904 19.1163L71.1559 15.8999L67.9394 13.6345L65.674 16.8509Z" fill="#4BEF9D"/>
<path d="M68.8943 19.1191L72.1107 21.3845L74.3762 18.1681L71.1598 15.9027L68.8943 19.1191Z" fill="#28DD8B"/>
<path d="M72.1109 21.3846L75.3273 23.65L77.5928 20.4336L74.3763 18.1682L72.1109 21.3846Z" fill="#28DD8B"/>
<path d="M75.3299 23.6518L78.5463 25.9172L80.8117 22.7008L77.5953 20.4354L75.3299 23.6518Z" fill="#4BEF9D"/>
<path d="M76.2807 29.1364L79.4972 31.4019L81.7626 28.1854L78.5462 25.92L76.2807 29.1364Z" fill="#28DD8B"/>
<path d="M74.015 32.3533L77.2314 34.6188L79.4968 31.4023L76.2804 29.1369L74.015 32.3533Z" fill="#28DD8B"/>
<path d="M76.9478 39.2338L80.1642 41.4993L82.4296 38.2828L79.2132 36.0174L76.9478 39.2338Z" fill="#29D381"/>
<path d="M77.235 34.6213L80.4514 36.8867L82.7168 33.6703L79.5004 31.4049L77.235 34.6213Z" fill="#28DD8B"/>
<path d="M73.7312 36.9683L76.9476 39.2338L79.213 36.0173L75.9966 33.7519L73.7312 36.9683Z" fill="#29D381"/>
<path d="M56.9741 15.538L60.1905 17.8035L62.4559 14.587L59.2395 12.3216L56.9741 15.538Z" fill="#28DD8B"/>
<path d="M46.006 17.4405L49.2224 19.7059L51.4878 16.4895L48.2714 14.2241L46.006 17.4405Z" fill="#28DD8B"/>
<path d="M22.3873 44.1335L25.6037 46.3989L27.8691 43.1825L24.6527 40.9171L22.3873 44.1335Z" fill="#4BEF9D"/>
<path d="M24.6526 40.9172L27.869 43.1826L30.1344 39.9662L26.918 37.7007L24.6526 40.9172Z" fill="#4BEF9D"/>
</g>
<defs>
<filter id="filter0_f" x="0.690125" y="2.32166" width="92.0267" height="84.3553" filterUnits="userSpaceOnUse" color-interpolation-filters="sRGB">
<feFlood flood-opacity="0" result="BackgroundImageFix"/>
<feBlend mode="normal" in="SourceGraphic" in2="BackgroundImageFix" result="shape"/>
<feGaussianBlur stdDeviation="5" result="effect1_foregroundBlur"/>
</filter>
</defs>
</svg>

<svg width="93" height="97" fill="none" xmlns="http://www.w3.org/2000/svg"><g filter="url(#filter0_f)"><path d="M10.7 74.4l3.2 2.3 2.3-3.2-3.2-2.3-2.3 3.2z" fill="#29D381"/><path d="M13 71.2l3.2 2.3 2.2-3.3-3.2-2.2-2.2 3.2z" fill="#28DD8B"/><path d="M12 65.7l3.2 2.3 2.3-3.2-3.2-2.3-2.3 3.2z" fill="#4BEF9D"/><path d="M15.2 68l3.2 2.2 2.3-3.2-3.2-2.2-2.3 3.2z" fill="#29D381"/><path d="M14.3 62.5l3.2 2.3 2.3-3.3-3.3-2.2-2.2 3.2z" fill="#28DD8B"/><path d="M16.5 59.3l3.3 2.2 2.2-3.2-3.2-2.2-2.3 3.2z" fill="#28DD8B"/><path d="M18.8 56l3.2 2.3 2.3-3.2-3.2-2.3-2.3 3.3zM24.3 55.1l3.2 2.3 2.3-3.2-3.2-2.3-2.3 3.2z" fill="#28DD8B"/><path d="M21 52.8l3.3 2.3 2.3-3.2-3.3-2.3-2.2 3.2z" fill="#4BEF9D"/><path d="M26.6 51.9l3.2 2.3 2.2-3.3-3.2-2.2-2.2 3.2zM51.1 30.7l3.2 2.2 2.3-3.2-3.2-2.2-2.3 3.2zM29.8 54.2l3.2 2.2 2.3-3.2-3.3-2.3-2.2 3.3z" fill="#28DD8B"/><path d="M27.5 57.4l3.2 2.2 2.3-3.2-3.2-2.2-2.3 3.2z" fill="#29D381"/><path d="M23.3 49.6l3.3 2.3 2.2-3.2-3.2-2.3-2.3 3.2z" fill="#28DD8B"/><path d="M20.1 47.4l3.2 2.2 2.3-3.2-3.2-2.3-2.3 3.3z" fill="#4BEF9D"/><path d="M17.9 50.6l3.2 2.2 2.2-3.2-3.2-2.2-2.2 3.2z" fill="#28DD8B"/><path d="M15.6 53.8l3.2 2.3 2.3-3.3-3.2-2.2-2.3 3.2z" fill="#28DD8B"/><path d="M22 58.3l3.2 2.3 2.3-3.2-3.2-2.3-2.3 3.2z" fill="#29D381"/><path d="M28.8 48.7l3.2 2.2 2.3-3.2-3.2-2.3-2.3 3.3zM32 51l3.3 2.2 2.2-3.2-3.2-2.3L32 51z" fill="#28DD8B"/><path d="M25.6 46.4l3.2 2.3 2.3-3.2-3.2-2.3-2.3 3.2z" fill="#4BEF9D"/><path d="M31 45.5l3.3 2.2 2.3-3.2-3.2-2.3-2.3 3.3z" fill="#28DD8B"/><path d="M34.3 47.7l3.2 2.3 2.3-3.2-3.2-2.3-2.3 3.2z" fill="#28DD8B"/><path d="M37.5 50l3.2 2.3L43 49l-3.2-2.2-2.3 3.2z" fill="#28DD8B"/><path d="M39.8 46.8L43 49l2.3-3.2-3.2-2.3-2.3 3.3z" fill="#28DD8B"/><path d="M42 43.5l3.3 2.3 2.2-3.2-3.2-2.3-2.2 3.2z" fill="#28DD8B"/><path d="M44.3 40.3l3.2 2.3 2.3-3.2-3.2-2.3-2.3 3.2z" fill="#28DD8B"/><path d="M46.6 37.1l3.2 2.3 2.3-3.2-3.2-2.3-2.3 3.2z" fill="#28DD8B"/><path d="M48.9 33.9l3.2 2.3 2.2-3.3-3.2-2.2-2.2 3.2zM27.9 43.2l3.2 2.3 2.3-3.3L30 40 28 43.2zM33.4 42.2l3.2 2.3 2.2-3.2-3.2-2.3-2.2 3.2z" fill="#28DD8B"/><path d="M36.6 44.5l3.2 2.3 2.3-3.3-3.3-2.2-2.2 3.2z" fill="#28DD8B"/><path d="M30.1 40l3.3 2.2 2.2-3.2-3.2-2.3-2.3 3.3z" fill="#4BEF9D"/><path d="M27 37.7L30 40l2.3-3.3-3.2-2.2-2.3 3.2zM35.6 39l3.2 2.3 2.3-3.2-3.2-2.3-2.3 3.2z" fill="#28DD8B"/><path d="M38.8 41.3l3.3 2.2 2.2-3.2-3.2-2.2-2.3 3.2z" fill="#28DD8B"/><path d="M32.4 36.7l3.2 2.3 2.3-3.2-3.2-2.3-2.3 3.2z" fill="#4BEF9D"/><path d="M29.2 34.5l3.2 2.2 2.3-3.2-3.2-2.2-2.3 3.2z" fill="#4BEF9D"/><path d="M37.9 35.8L41 38l2.3-3.3-3.2-2.2-2.3 3.2zM41.1 38l3.2 2.3 2.3-3.2-3.2-2.3-2.3 3.3z" fill="#28DD8B"/><path d="M34.7 33.5l3.2 2.3 2.3-3.2-3.3-2.3-2.2 3.2z" fill="#4BEF9D"/><path d="M37 30.3l3.2 2.3 2.2-3.2-3.2-2.3-2.3 3.2z" fill="#28DD8B"/><path d="M33.7 28l3.2 2.3 2.3-3.2-3.2-2.3-2.3 3.2z" fill="#4BEF9D"/><path d="M30.5 25.8l3.2 2.2 2.3-3.2-3.2-2.2-2.3 3.2z" fill="#28DD8B"/><path d="M28.2 29l3.3 2.3 2.2-3.3-3.2-2.2-2.3 3.2z" fill="#28DD8B"/><path d="M26 32.2l3.2 2.3 2.3-3.2-3.3-2.3-2.2 3.2z" fill="#28DD8B"/><path d="M23.7 35.4l3.2 2.3 2.3-3.2-3.2-2.3-2.3 3.2zM21.4 38.7l3.3 2.2 2.2-3.2-3.2-2.3-2.3 3.3z" fill="#28DD8B"/><path d="M19.2 41.9l3.2 2.2 2.3-3.2-3.3-2.2-2.2 3.2z" fill="#28DD8B"/><path d="M16.9 45l3.2 2.4 2.3-3.3-3.2-2.2-2.3 3.2zM31.5 31.3l3.2 2.2 2.2-3.2-3.2-2.3-2.2 3.3zM40.2 32.6l3.2 2.2 2.2-3.2-3.2-2.2-2.2 3.2z" fill="#28DD8B"/><path d="M43.4 34.8l3.2 2.3 2.3-3.2-3.3-2.3-2.2 3.2z" fill="#28DD8B"/><path d="M42.4 29.4l3.2 2.2 2.3-3.2-3.2-2.3-2.3 3.3z" fill="#28DD8B"/><path d="M39.2 27.1l3.2 2.3 2.3-3.3-3.2-2.2-2.3 3.2z" fill="#4BEF9D"/><path d="M36 24.8l3.2 2.3 2.3-3.2-3.2-2.3-2.3 3.2z" fill="#4BEF9D"/><path d="M38.3 21.6l3.2 2.3 2.2-3.2-3.2-2.3-2.2 3.2zM40.5 18.4l3.2 2.3 2.3-3.3-3.2-2.2-2.3 3.2z" fill="#4BEF9D"/><path d="M44.7 26.1l3.2 2.3 2.3-3.2-3.2-2.3-2.3 3.2z" fill="#28DD8B"/><path d="M48 28.4l3.1 2.3 2.3-3.2-3.2-2.3-2.3 3.2zM41.5 23.9l3.2 2.2L47 23l-3.3-2.2-2.2 3.2zM47 23l3.2 2.2 2.2-3.2-3.2-2.3L47 23z" fill="#28DD8B"/><path d="M50.2 25.2l3.2 2.3 2.3-3.3-3.3-2.2-2.2 3.2z" fill="#28DD8B"/><path d="M53.4 27.5l3.2 2.2 2.3-3.2-3.2-2.3-2.3 3.3zM54.3 33l3.3 2.2 2.2-3.2-3.2-2.3-2.3 3.2zM45.6 31.6L49 34l2.2-3.2-3.2-2.3-2.3 3.2z" fill="#28DD8B"/><path d="M56.6 29.7l3.2 2.3 2.3-3.2-3.2-2.3-2.3 3.2z" fill="#28DD8B"/><path d="M43.7 20.7l3.3 2.2 2.2-3.2-3.2-2.3-2.3 3.3zM49.2 19.7l3.2 2.3 2.3-3.2-3.2-2.3-2.3 3.2z" fill="#4BEF9D"/><path d="M52.4 22l3.3 2.2 2.2-3.2-3.2-2.2-2.3 3.2zM55.7 24.2l3.2 2.3 2.2-3.2L58 21l-2.2 3.2zM51.5 16.5l3.2 2.3 2.3-3.3-3.2-2.2-2.3 3.2z" fill="#28DD8B"/><path d="M54.7 18.8L58 21l2.3-3.2-3.2-2.3-2.3 3.3z" fill="#4BEF9D"/><path d="M58 21l3.1 2.3 2.3-3.2-3.2-2.3-2.3 3.2zM61.1 23.3l3.3 2.3 2.2-3.3-3.2-2.2-2.3 3.2z" fill="#28DD8B"/><path d="M60.2 17.8l3.2 2.3 2.3-3.2-3.2-2.3-2.3 3.2z" fill="#4BEF9D"/><path d="M63.4 20l3.2 2.3 2.3-3.2-3.2-2.2-2.3 3.2zM66.6 22.3l3.2 2.3 2.3-3.2L69 19l-2.3 3.2zM69.8 24.6l3.3 2.3 2.2-3.2-3.2-2.3-2.3 3.2z" fill="#28DD8B"/><path d="M73 26.9l3.3 2.2 2.2-3.2-3.2-2.2-2.2 3.2zM70.8 30l3.2 2.4 2.3-3.3L73 27 70.8 30z" fill="#28DD8B"/><path d="M67.6 27.8l3.2 2.3 2.3-3.2-3.3-2.3-2.2 3.2z" fill="#28DD8B"/><path d="M64.4 25.6l3.2 2.2 2.2-3.2-3.2-2.3-2.2 3.3zM58.9 26.5l3.2 2.3 2.3-3.2-3.3-2.3-2.2 3.2z" fill="#28DD8B"/><path d="M62 28.8l3.3 2.2 2.3-3.2-3.2-2.2-2.3 3.2z" fill="#28DD8B"/><path d="M65.7 16.9l3.2 2.2 2.3-3.2-3.3-2.3-2.2 3.3z" fill="#4BEF9D"/><path d="M68.9 19.1l3.2 2.3 2.3-3.2-3.2-2.3-2.3 3.2z" fill="#28DD8B"/><path d="M72.1 21.4l3.2 2.3 2.3-3.3-3.2-2.2-2.3 3.2z" fill="#28DD8B"/><path d="M75.3 23.7l3.2 2.2 2.3-3.2-3.2-2.3-2.3 3.3z" fill="#4BEF9D"/><path d="M76.3 29.1l3.2 2.3 2.3-3.2-3.3-2.3-2.2 3.2z" fill="#28DD8B"/><path d="M74 32.4l3.2 2.2 2.3-3.2-3.2-2.3-2.3 3.3z" fill="#28DD8B"/><path d="M77 39.2l3.2 2.3 2.2-3.2-3.2-2.3-2.3 3.2z" fill="#29D381"/><path d="M77.2 34.6l3.3 2.3 2.2-3.2-3.2-2.3-2.3 3.2z" fill="#28DD8B"/><path d="M73.7 37l3.2 2.2 2.3-3.2-3.2-2.2-2.3 3.2z" fill="#29D381"/><path d="M57 15.5l3.2 2.3 2.3-3.2-3.3-2.3-2.2 3.2zM46 17.4l3.2 2.3 2.3-3.2-3.2-2.3-2.3 3.2z" fill="#28DD8B"/><path d="M22.4 44.1l3.2 2.3 2.3-3.2-3.2-2.3-2.3 3.2z" fill="#4BEF9D"/><path d="M24.7 41l3.2 2.2L30 40 27 37.7l-2.2 3.2z" fill="#4BEF9D"/></g><defs><filter id="filter0_f" x=".7" y="2.3" width="92" height="84.4" filterUnits="userSpaceOnUse" color-interpolation-filters="sRGB"><feFlood flood-opacity="0" result="BackgroundImageFix"/><feBlend in="SourceGraphic" in2="BackgroundImageFix" result="shape"/><feGaussianBlur stdDeviation="5" result="effect1_foregroundBlur"/></filter></defs></svg>
